X:299
M:4/4
L:1/4
K:F
C C/D/ F F | G G/F/ A/G/ F/D/ | C C/D/ F F | A G F2 | C C/D/ F F | G G/F/ A/G/ F/D/ | C C/D/ F F | A G F2 | A c c c | A A/F/ G F | A c c c | A A/F/ G2 | C C/D/ F F | G G/F/ A/G/ F/D/ | !sintro!C C/D/ F F | A G F2 !eintro!|] Special thanks for this text goes to Pastor Todd Liefer, whose sermon inspired it.
